X: 1
T: Green Fields Of America, The
M: 4/4
L: 1/8
R: reel
K: Gmaj
c2ec B2dB | AGAB AGEF| ~G3E DEGB | AGAB AGEG |
c2ec B2dB | AGAB AGEF | ~G3E DEGA|BGAF G3z :||
GABc d2ef | gage dBGB | c2ec B2dB | AGAB AGE2 |
~g3d efge | dcBG AGEF | ~G3E DEGA | BGAF G3z :||
